flags/mn.svg

<svg viewBox="0 0 4800 2400" xmlns="http://www.w3.org/2000/svg"><g fill="#f9cf02"><g transform="scale(5)"><path d="m0 0h960v480h-960z" fill="#c4272f"/><path d="m320 0h320v480h-320z" fill="#015197"/><circle cx="160" cy="164" r="44"/><circle cx="160" cy="144" fill="#c4272f" r="48"/><circle cx="160" cy="152" r="32"/><path d="m140 92a20 20 0 0 0 40 0c0-8-5-9-5-12s3-7-3-12c3 5-2 6-2 11s2 5 2 9a4 4 0 0 1 -8 0c0-4 4-8 4-14s-1-8-4-13-8-9-4-13c-6 2-3 10-3 15s-4 8-4 14 3 7 3 11a4 4 0 0 1 -8 0c0-4 2-4 2-9s-5-6-2-11c-6 5-3 9-3 12s-5 4-5 12z"/><path d="m72 216v192h40v-192zm136 0v192h40v-192zm-88 32v16h80v-16zm0 112v16h80v-16zm0-144h80l-40 24zm0 168h80l-40 24z"/></g><g stroke="#c4272f" stroke-width="24"><circle cx="800" cy="1560" r="212"/><path d="m800 1348a106 106 0 0 1 0 212 106 106 0 0 0 0 212" fill="none"/></g></g><g fill="#c4272f"><circle cx="800" cy="1454" r="40"/><circle cx="800" cy="1666" r="40"/></g></svg>

<svg xmlns="http://www.w3.org/2000/svg" viewBox="0 0 4800 2400">
<g fill="#f9cf02">
<g transform="scale(5)">
<rect width="960" height="480" fill="#c4272f"/>
<rect x="320" width="320" height="480" fill="#015197"/>
<circle cx="160" cy="164" r="44"/>
<circle cx="160" cy="144" r="48" fill="#c4272f"/>
<circle cx="160" cy="152" r="32"/>
<path d="M140,92a20,20 0 0,0 40,0c0-8-5-9-5-12 0-3,3-7-3-12 3,5-2,6-2,11 0,5,2,5,2,9a4,4 0 0,1-8,0c0-4,4-8,4-14 0-6-1-8-4-13-3-5-8-9-4-13-6,2-3,10-3,15 0,5-4,8-4,14 0,6,3,7,3,11a4,4 0 0,1-8,0c0-4,2-4,2-9 0-5-5-6-2-11-6,5-3,9-3,12 0,3-5,4-5,12Z"/>
<path d="M72,216V408H112V216ZM208,216V408H248V216ZM120,248V264H200V248ZM120,360V376H200V360ZM120,216H200L160,240ZM120,384H200L160,408Z"/>
</g>
<g stroke="#c4272f" stroke-width="24">
<circle cx="800" cy="1560" r="212"/>
<path fill="none" d="M800,1348A106,106 0 0,1 800,1560A106,106 0 0,0 800,1772"/>
</g>
</g>
<g fill="#c4272f">
<circle cx="800" cy="1454" r="40"/>
<circle cx="800" cy="1666" r="40"/>
</g>
</svg>
